X:561
T:Silken Cravat., The
T:an cara.bat sioda.
R:waltz
N:"Slow.""Collected from J. O'Neill."
Z:transcribed by J.B. Walsh walsh@math.ubc.ca
M:3/4
L:1/8
<START_ANN> %Q:60 <END_ANN>
K:Dm
A/G/ FE|"f"D2 de fd|cA GF GA|B2 AG FE|"p"D3:|
A2 "cresc."Bcdd|d2 ef ec|fg2 "dim."fe dA|GF .DR.E .F.G|A3 A/G/ FE|
D2 de fd|cA GF GA|"p"B2 AG FFE|"pp"D3||
